!!!COM: Music21
!!!OTL: jig_Rabbit-Stew
!!!OMV: jig_Rabbit-Stew
**kern
*clefG2
*k[f#c#]
*M6/8
=1
4f#
8a
8ddL
8cc#
8aJ
=
4b
8dd
8ddL
8cc#
8bJ
=
4cc#
8a
8bL
8a
8f#J
=
4e
8a
8ddL
8cc#
8aJ
=
4b
8ee
8eeL
8dd
8cc#J
=
4.ee
8ddL
8cc#
8aJ
=
4f#
8a
8ddL
8cc#
8aJ
!!linebreak:original
=
4b
8dd
8ddL
8cc#
8aJ
=||
*M6/8
4f#
8a
8ddL
8cc#
8aJ
=
4b
8dd
8ddL
8cc#
8bJ
=
4cc#
8a
8bL
8a
8f#J
=
4e
8a
8ddL
8cc#
8aJ
=
4b
8ee
8eeL
8dd
8cc#J
=
4.ee
8ddL
8cc#
8aJ
!!linebreak:original
=
4b
8dd
8ddL
8cc#
8bJ
=
4cc#
8ee
8eeL
8dd
8cc#J
=||
8eeL
8dd
8cc#J
8ddL
8cc#
8aJ
=
8f#L
8a
8bJ
8aL
8b
8cc#J
=
8bL
8dd
8eeJ
4ff#
8aa
=
4.ee
8eeL
8dd
8cc#J
=
8eeL
8dd
8cc#J
8ddL
8cc#
8aJ
!!linebreak:original
=
8f#L
8a
8bJ
8aL
8b
8cc#J
=
8bL
8dd
8eeJ
4ff#
8aa
=
4.ee
8eeL
8dd
8cc#J
=||
8eeL
8dd
8cc#J
8ddL
8cc#
8aJ
=
8f#L
8a
8bJ
8aL
8b
8cc#J
=
8bL
8dd
8eeJ
4ff#
8aa
=
4.ee
8eeL
8dd
8cc#J
!!linebreak:original
=
8eeL
8dd
8cc#J
8ddL
8cc#
8aJ
=
8f#L
8a
8bJ
8aL
8b
8cc#J
=
8bL
8dd
8eeJ
8ff#L
8dd
8cc#J
=
8bL
8a
8f#J
4.e
=||
*-
